X:33
T:Long live the King. Ru2.033
%%VWML:RutherfordVol2-2249-p17-0
F:http://www.vwml.org/record/RutherfordVol2/2249/p17
B:RUTHERFORD Complete Collection of 200 Country Dances Vol.2; 1759.
Z:vmp.Mike Hicken 2015 www.village-music-project.org.uk
M:2/4
Q:1/4=100
K:D
a2 a>g|{g}Tf3e|dfec|dA FD|a2 a>g|Tf3e|dfec|d4 :|
|: A2 A>B|c2 c>d|efge|Tf3e|d2 d>e|f2f>g|adec|d4 :|
|:a2 a>g|Tf4|a2 a>g|Tf4|a2 a>g|f2 fd|e2 ec|d4 :|
W:
W: Right hands across quite round .|  left Hands
W: back again :|  cast off two Cu: .|.  cast up again :|
W: cross over one Cu: .||.  Right and left at top :||
|:
T:Trip to Aberdeen. Ru2.034, A
L:1/8
B:RUTHERFORD Complete Collection of 200 Country Dances Vol.2; 1759.
Z:vmp.Mike Hicken 2015 www.village-music-project.org.uk
M:6/8
Q:3/8=90
K:F
FAc f2c|dBd cAc|FAc fcA|dBG G2A|
FAc fcf|dBd cAc|BAG (A/B/c)G|TA>GF F3 :|
|: (FA/B/c) (cA/B/c/A/)|dBd cAc|(FA/B/c) (cA/B/c)|dBG G2A|
(FA/B/c) (cA/B/c)|afa geg |(fd/e/f)cAf|cAF F3 :|
W:
W: First Man cast off and turn the 3d Wo: .|  first Wo:
W: cast off and turn the 3d Man :|  Hands round 6 .|.
W: that back again :||:  foot it corners and turn .||.
W: Lead out sides and turn :|
